svg/furkot/icomoon/print.svg

<svg height="512" viewBox="0 0 512 512" width="512"><path d="m128 32h256v64h-256zm352 96h-448c-17.6 0-32 14.4-32 32v160c0 17.6 14.398 32 32 32h96v128h256v-128h96c17.6 0 32-14.4 32-32v-160c0-17.6-14.4-32-32-32zm-128 320h-192v-160h192zm135.2-272c0 12.813-10.387 23.2-23.199 23.2-12.813 0-23.201-10.387-23.201-23.2s10.388-23.2 23.201-23.2 23.199 10.387 23.199 23.2z"/></svg>

<svg width="512" height="512" viewBox="0 0 512 512" data-tags="print, printer" style="margin-left:8px;margin-top:8px"><path d="M 128.00,32.00L 384.00,32.00L 384.00,96.00L 128.00,96.00zM 480.00,128.00L 32.00,128.00 C 14.40,128.00,0.00,142.40,0.00,160.00l0.00,160.00 c0.00,17.60, 14.398,32.00, 32.00,32.00l 96.00,0.00 l0.00,128.00 l 256.00,0.00 L 384.00,352.00 l 96.00,0.00 c 17.60,0.00, 32.00-14.40, 32.00-32.00L 512.00,160.00 C 512.00,142.40, 497.60,128.00, 480.00,128.00z M 352.00,448.00L 160.00,448.00 L 160.00,288.00 l 192.00,0.00 L 352.00,448.00 z M 487.20,176.00c0.00,12.813-10.387,23.20-23.199,23.20 c-12.813,0.00-23.201-10.387-23.201-23.20s 10.388-23.20, 23.201-23.20C 476.814,152.80, 487.20,163.187, 487.20,176.00z"/></svg>
